X: 34970
T: Roddam Dene
R: hornpipe
M: 4/4
K: Gmajor
B2c|d2g g2e f2d fga|g3 d2c B2G D2C|B,2D G2B C2E G2c|B2A G2B A3 B2c|
d2g g2e f2d fga|g3 d2c B2d c2A|E2A Bcd c2A D2F|A2G G2F G3:|
|:A2G|FED F2G A2B c2A|B2G G2F G2A B2d|e2c g2c a2g e2^c|ded ^ce d3 def|
g2b gfe d2D D2d|c2D D2c B2d c2A|E2A Bcd c2A D2F|A2G G2F G3:|

